X:0170
T:Lord Kelly's Reel.
T:Lord Kelly's Reel by Mr Greg.
N:second title is as in the index
N:probably by the Earl of Kelly
M:C
L:1/8
Q:1/2=104
I: :: ::
Z:Jack Campin * www.campin.me.uk * 2009
K:E Minor
D|B,EGE BEGE|D>EFd DE (G/F/E/D/)|B,EEG FAGB|Ad (B/A/G/F/) GE`E:|
e|ge`Be Eeeg|fd`Ad Dd  de/f/    |geBe  dBAG|Fd  B/A/G/F/  GE`Ee|
  ge`Be EGeg|fd`Ad DA``df       |gefd  eBAG|Fd  B/A/G/F/  GE`E:|

